src/assets/img/catalog-single/scroll.svg

<svg width="1205" height="31" viewBox="0 0 1205 31" fill="none" xmlns="http://www.w3.org/2000/svg">
<path d="M49 20H43.2578C43.071 20 42.9775 19.9157 42.9775 19.7471V19.1318C42.9775 18.9723 43.071 18.8926 43.2578 18.8926H45.4863V10.915L44.0234 11.5303C43.5221 11.7399 43.2555 11.8493 43.2236 11.8584C43.1917 11.8675 43.1576 11.8721 43.1211 11.8721C43.0254 11.8721 42.9775 11.8242 42.9775 11.7285V11.0107C42.9775 10.9652 42.9867 10.9287 43.0049 10.9014C43.0277 10.874 43.1553 10.8102 43.3877 10.71L45.3838 9.79395C45.6663 9.66178 45.8441 9.5957 45.917 9.5957H46.4912C46.5641 9.5957 46.6257 9.62305 46.6758 9.67773C46.7305 9.72786 46.7578 9.78939 46.7578 9.8623V18.8926H49C49.1868 18.8926 49.2803 18.9723 49.2803 19.1318V19.7471C49.2803 19.9157 49.1868 20 49 20ZM57.4766 20H51.7344C51.5475 20 51.4541 19.9157 51.4541 19.7471V19.1318C51.4541 18.9723 51.5475 18.8926 51.7344 18.8926H53.9629V10.915L52.5 11.5303C51.9987 11.7399 51.7321 11.8493 51.7002 11.8584C51.6683 11.8675 51.6341 11.8721 51.5977 11.8721C51.502 11.8721 51.4541 11.8242 51.4541 11.7285V11.0107C51.4541 10.9652 51.4632 10.9287 51.4814 10.9014C51.5042 10.874 51.6318 10.8102 51.8643 10.71L53.8604 9.79395C54.1429 9.66178 54.3206 9.5957 54.3936 9.5957H54.9678C55.0407 9.5957 55.1022 9.62305 55.1523 9.67773C55.207 9.72786 55.2344 9.78939 55.2344 9.8623V18.8926H57.4766C57.6634 18.8926 57.7568 18.9723 57.7568 19.1318V19.7471C57.7568 19.9157 57.6634 20 57.4766 20ZM66.623 15.7412C66.623 18.6442 65.4814 20.0957 63.1982 20.0957C60.9014 20.0957 59.7529 18.6442 59.7529 15.7412V13.8545C59.7529 10.9515 60.9014 9.5 63.1982 9.5C65.4814 9.5 66.623 10.9515 66.623 13.8545V15.7412ZM65.3516 15.7412V13.8545C65.3516 11.6715 64.6338 10.5801 63.1982 10.5801C61.7581 10.5801 61.0381 11.6715 61.0381 13.8545V15.7412C61.0381 17.9287 61.7581 19.0225 63.1982 19.0225C64.6338 19.0225 65.3516 17.9287 65.3516 15.7412ZM71.8252 13.0547C71.8252 13.793 71.6634 14.3558 71.3398 14.7432C71.0208 15.1305 70.5583 15.3242 69.9521 15.3242C69.3415 15.3242 68.8721 15.1305 68.5439 14.7432C68.2204 14.3558 68.0586 13.793 68.0586 13.0547V11.7559C68.0586 10.9993 68.2227 10.4342 68.5508 10.0605C68.8789 9.68685 69.346 9.5 69.9521 9.5C71.2008 9.5 71.8252 10.252 71.8252 11.7559V13.0547ZM70.957 13.0547V11.7559C70.957 10.776 70.6221 10.2861 69.9521 10.2861C69.2686 10.2861 68.9268 10.776 68.9268 11.7559V13.0547C68.9268 14.0345 69.2686 14.5244 69.9521 14.5244C70.6221 14.5244 70.957 14.0345 70.957 13.0547ZM76.4189 9.5957C76.4919 9.5957 76.5283 9.62533 76.5283 9.68457C76.5283 9.72559 76.5055 9.78483 76.46 9.8623L70.6084 19.7744C70.499 19.9613 70.3965 20.0547 70.3008 20.0547H69.6104C69.5192 20.0547 69.4736 20.0182 69.4736 19.9453C69.4736 19.8952 69.4919 19.8382 69.5283 19.7744L75.3799 9.8623C75.4893 9.68457 75.5964 9.5957 75.7012 9.5957H76.4189ZM77.916 17.833C77.916 18.5804 77.752 19.1455 77.4238 19.5283C77.1003 19.9066 76.64 20.0957 76.043 20.0957C75.4323 20.0957 74.9629 19.902 74.6348 19.5146C74.3112 19.1273 74.1494 18.5667 74.1494 17.833V16.5273C74.1494 15.7891 74.3112 15.2262 74.6348 14.8389C74.9583 14.4515 75.4277 14.2578 76.043 14.2578C76.6491 14.2578 77.1117 14.4515 77.4307 14.8389C77.7542 15.2217 77.916 15.7845 77.916 16.5273V17.833ZM77.0479 17.833V16.5273C77.0479 15.5475 76.7129 15.0576 76.043 15.0576C75.3594 15.0576 75.0176 15.5475 75.0176 16.5273V17.833C75.0176 18.8128 75.3594 19.3027 76.043 19.3027C76.7129 19.3027 77.0479 18.8128 77.0479 17.833Z" fill="white"/>
<rect x="413" width="31" height="31" fill="black" fill-opacity="0.5"/>
<rect x="838" width="170" height="31" fill="black" fill-opacity="0.5"/>
<rect x="1174" width="31" height="31" fill="black" fill-opacity="0.5"/>
<rect x="1" y="1" width="1203" height="29" stroke="white" stroke-width="2"/>
<path d="M431.41 11.41L430 10L424 16L430 22L431.41 20.59L426.83 16L431.41 11.41Z" fill="white"/>
<path d="M1185.59 11.41L1187 10L1193 16L1187 22L1185.59 20.59L1190.17 16L1185.59 11.41Z" fill="white"/>
<line x1="414" y1="2" x2="414" y2="29" stroke="white" stroke-width="2"/>
<line x1="34" y1="2" x2="34" y2="29" stroke="white" stroke-width="2"/>
<line x1="445" y1="2" x2="445" y2="29" stroke="white" stroke-width="2"/>
<line x1="1173" y1="2" x2="1173" y2="29" stroke="white" stroke-width="2"/>
<path d="M15.2665 23.9C12.5415 22.6167 10.5915 19.9667 10.2915 16.8333H9.0415C9.4665 21.9667 13.7582 26 18.9998 26L19.5498 25.975L16.3748 22.8L15.2665 23.9ZM16.0082 18.4667C15.8498 18.4667 15.6998 18.4417 15.5748 18.4C15.4415 18.35 15.3332 18.2917 15.2415 18.2C15.1498 18.1167 15.0748 18.0167 15.0248 17.8917C14.9748 17.775 14.9498 17.6417 14.9498 17.5H13.8665C13.8665 17.8 13.9248 18.0667 14.0415 18.2917C14.1582 18.5167 14.3165 18.7083 14.5082 18.8667C14.7082 19.0167 14.9332 19.1333 15.1915 19.2083C15.4415 19.2917 15.7082 19.3333 15.9915 19.3333C16.2998 19.3333 16.5915 19.2917 16.8498 19.2083C17.1165 19.125 17.3498 19 17.5415 18.8417C17.7332 18.6833 17.8915 18.4833 17.9998 18.2417C18.1082 18 18.1665 17.7333 18.1665 17.4333C18.1665 17.275 18.1498 17.1167 18.1082 16.9667C18.0665 16.8167 18.0082 16.675 17.9165 16.5417C17.8332 16.4083 17.7165 16.2917 17.5832 16.1833C17.4415 16.075 17.2748 15.9917 17.0748 15.925C17.2415 15.85 17.3832 15.7583 17.5082 15.65C17.6332 15.5417 17.7332 15.425 17.8165 15.3C17.8998 15.175 17.9582 15.05 17.9998 14.9167C18.0415 14.7833 18.0582 14.65 18.0582 14.5167C18.0582 14.2167 18.0082 13.95 17.9082 13.7167C17.8082 13.4833 17.6665 13.2917 17.4832 13.1417C17.3165 12.9833 17.0915 12.8667 16.8415 12.7833C16.5832 12.7083 16.2998 12.6667 15.9915 12.6667C15.6915 12.6667 15.4165 12.7083 15.1582 12.8C14.9082 12.8917 14.6832 13.0167 14.4998 13.175C14.3248 13.3333 14.1832 13.5167 14.0748 13.7333C13.9748 13.95 13.9248 14.1833 13.9248 14.4417H15.0082C15.0082 14.3 15.0332 14.175 15.0832 14.0667C15.1332 13.9583 15.1998 13.8583 15.2915 13.7833C15.3832 13.7083 15.4832 13.6417 15.6082 13.6C15.7332 13.5583 15.8582 13.5333 16.0082 13.5333C16.3415 13.5333 16.5915 13.6167 16.7498 13.7917C16.9082 13.9583 16.9915 14.2 16.9915 14.5083C16.9915 14.6583 16.9665 14.7917 16.9248 14.9167C16.8832 15.0417 16.8082 15.1417 16.7165 15.225C16.6248 15.3083 16.5082 15.375 16.3748 15.425C16.2415 15.475 16.0748 15.5 15.8915 15.5H15.2498V16.3583H15.8915C16.0748 16.3583 16.2415 16.375 16.3915 16.4167C16.5415 16.4583 16.6665 16.525 16.7665 16.6083C16.8665 16.7 16.9498 16.8083 17.0082 16.9417C17.0665 17.075 17.0915 17.2333 17.0915 17.4167C17.0915 17.7583 16.9915 18.0167 16.7998 18.1917C16.6082 18.3833 16.3415 18.4667 16.0082 18.4667ZM23.1332 13.5333C22.8665 13.2583 22.5498 13.0417 22.1832 12.8917C21.8248 12.7417 21.4165 12.6667 20.9665 12.6667H18.9998V19.3333H20.9165C21.3748 19.3333 21.7998 19.2583 22.1748 19.1083C22.5498 18.9583 22.8748 18.75 23.1415 18.475C23.4082 18.2 23.6165 17.8667 23.7582 17.4833C23.8998 17.0917 23.9748 16.6583 23.9748 16.175V15.8417C23.9748 15.3583 23.8998 14.925 23.7582 14.5333C23.6082 14.1417 23.3998 13.8083 23.1332 13.5333ZM22.8082 16.1667C22.8082 16.5167 22.7665 16.825 22.6915 17.1083C22.6082 17.3833 22.4915 17.625 22.3332 17.8167C22.1748 18.0083 21.9748 18.1583 21.7415 18.2583C21.4998 18.3583 21.2248 18.4083 20.9165 18.4083H20.1582V13.6H20.9665C21.5665 13.6 22.0248 13.7917 22.3332 14.175C22.6498 14.5583 22.8082 15.1083 22.8082 15.8333V16.1667ZM18.9998 6L18.4498 6.025L21.6248 9.2L22.7332 8.09167C25.4582 9.38333 27.4082 12.025 27.6998 15.1583H28.9498C28.5332 10.0333 24.2415 6 18.9998 6Z" fill="white"/>
</svg>

<svg width="1205" height="31" fill="none" xmlns="http://www.w3.org/2000/svg"><path d="M49 20h-5.742c-.187 0-.28-.084-.28-.253v-.615c0-.16.093-.24.28-.24h2.228v-7.977l-1.463.615c-.5.21-.768.32-.8.328a.372.372 0 01-.102.014c-.096 0-.144-.048-.144-.143v-.718c0-.046.01-.082.028-.11.023-.027.15-.09.383-.191l1.996-.916c.282-.132.46-.198.533-.198h.574a.24.24 0 01.185.082.24.24 0 01.082.184v9.03H49c.187 0 .28.08.28.24v.615c0 .169-.093.253-.28.253zm8.477 0h-5.743c-.187 0-.28-.084-.28-.253v-.615c0-.16.093-.24.28-.24h2.229v-7.977l-1.463.615c-.501.21-.768.32-.8.328a.372.372 0 01-.102.014c-.096 0-.144-.048-.144-.143v-.718c0-.046.01-.082.027-.11.023-.027.15-.09.383-.191l1.996-.916c.283-.132.46-.198.534-.198h.574a.24.24 0 01.184.082.24.24 0 01.082.184v9.03h2.243c.186 0 .28.08.28.24v.615c0 .169-.094.253-.28.253zm9.146-4.259c0 2.903-1.142 4.355-3.425 4.355-2.297 0-3.445-1.452-3.445-4.355v-1.886c0-2.904 1.148-4.355 3.445-4.355 2.283 0 3.425 1.451 3.425 4.354v1.887zm-1.271 0v-1.886c0-2.184-.718-3.275-2.154-3.275-1.44 0-2.16 1.091-2.16 3.274v1.887c0 2.188.72 3.282 2.16 3.282 1.436 0 2.154-1.094 2.154-3.282zm6.473-2.686c0 .738-.162 1.3-.485 1.688-.32.387-.782.581-1.388.581-.61 0-1.08-.194-1.408-.58-.324-.388-.485-.951-.485-1.69v-1.298c0-.757.164-1.322.492-1.696.328-.373.795-.56 1.401-.56 1.249 0 1.873.752 1.873 2.256v1.299zm-.868 0v-1.3c0-.979-.335-1.469-1.005-1.469-.683 0-1.025.49-1.025 1.47v1.299c0 .98.342 1.47 1.025 1.47.67 0 1.005-.49 1.005-1.47zm5.462-3.46c.073 0 .11.03.11.09a.4.4 0 01-.069.177l-5.852 9.912c-.109.187-.212.28-.307.28h-.69c-.092 0-.137-.036-.137-.109 0-.05.018-.107.054-.17l5.852-9.913c.11-.177.216-.266.321-.266h.718zm1.497 8.238c0 .747-.164 1.313-.492 1.695-.324.379-.784.568-1.381.568-.61 0-1.08-.194-1.408-.581-.324-.388-.486-.948-.486-1.682v-1.306c0-.738.162-1.3.486-1.688.323-.388.793-.581 1.408-.581.606 0 1.069.194 1.388.58.323.384.485.947.485 1.69v1.305zm-.868 0v-1.306c0-.98-.335-1.47-1.005-1.47-.684 0-1.025.49-1.025 1.47v1.306c0 .98.341 1.47 1.025 1.47.67 0 1.005-.49 1.005-1.47z" fill="#fff"/><path fill="#000" fill-opacity=".5" d="M413 0h31v31h-31zm425 0h170v31H838zm336 0h31v31h-31z"/><path stroke="#fff" stroke-width="2" d="M1 1h1203v29H1z"/><path d="M431.41 11.41L430 10l-6 6 6 6 1.41-1.41-4.58-4.59 4.58-4.59zm754.18 0L1187 10l6 6-6 6-1.41-1.41 4.58-4.59-4.58-4.59z" fill="#fff"/><path stroke="#fff" stroke-width="2" d="M414 2v27M34 2v27M445 2v27m728-27v27"/><path d="M15.267 23.9a8.739 8.739 0 01-4.976-7.067h-1.25C9.466 21.967 13.758 26 19 26l.55-.025-3.175-3.175-1.108 1.1zm.741-5.433a1.39 1.39 0 01-.433-.067.891.891 0 01-.333-.2.825.825 0 01-.217-.308.995.995 0 01-.075-.392h-1.083c0 .3.058.567.174.792.117.225.275.416.467.575.2.15.425.266.684.341.25.084.516.125.8.125.308 0 .6-.041.858-.125.266-.083.5-.208.691-.366.192-.159.35-.359.459-.6.108-.242.166-.509.166-.809a1.75 1.75 0 00-.058-.466 1.498 1.498 0 00-1.033-1.042 1.749 1.749 0 00.742-.625 1.354 1.354 0 00.241-.783c0-.3-.05-.567-.15-.8a1.483 1.483 0 00-.425-.575 1.715 1.715 0 00-.642-.359 3.037 3.037 0 00-.85-.116c-.3 0-.575.041-.833.133-.25.092-.475.217-.658.375a1.875 1.875 0 00-.425.558c-.1.217-.15.45-.15.709h1.083c0-.142.025-.267.075-.375a.782.782 0 01.208-.284.989.989 0 01.317-.183 1.21 1.21 0 01.4-.067c.334 0 .584.084.742.259.158.166.241.408.241.716 0 .15-.024.284-.066.409a.724.724 0 01-.209.308c-.091.083-.208.15-.341.2-.134.05-.3.075-.483.075h-.642v.858h.642c.183 0 .35.017.5.059.15.041.274.108.375.191.1.092.183.2.241.334.059.133.084.291.084.475 0 .341-.1.6-.292.775-.192.191-.459.275-.792.275zm7.125-4.934a2.776 2.776 0 00-.95-.641 3.135 3.135 0 00-1.216-.225H19v6.666h1.916c.459 0 .884-.075 1.259-.225.375-.15.7-.358.966-.633.267-.275.476-.608.617-.992a3.8 3.8 0 00.217-1.308v-.333c0-.484-.075-.917-.217-1.309a2.914 2.914 0 00-.625-1zm-.325 2.634c0 .35-.041.658-.116.941-.084.275-.2.517-.359.709a1.56 1.56 0 01-.591.441c-.242.1-.517.15-.826.15h-.758V13.6h.808c.6 0 1.059.192 1.367.575.317.383.475.933.475 1.658v.334zM19 6l-.55.025L21.625 9.2l1.108-1.108c2.725 1.291 4.675 3.933 4.967 7.066h1.25A9.98 9.98 0 0019 6z" fill="#fff"/></svg>
